src/next/cmd/lc_replycomment.svg

<svg height="24" viewBox="0 0 24 24" width="24" xmlns="http://www.w3.org/2000/svg" xmlns:xlink="http://www.w3.org/1999/xlink"><linearGradient id="a" gradientTransform="matrix(0 .27744933 -.27744933 0 -41.945427 -266.49343)" gradientUnits="userSpaceOnUse" x1="9.978035" x2="-77.65287" y1="-367.08105" y2="-390.56168"><stop offset="0" stop-color="#06f"/><stop offset="1" stop-color="#002049"/></linearGradient><radialGradient id="b" cx="341.08624" cy="77.172691" fx="341.84244" fy="66.635597" gradientTransform="matrix(.457792 -.00000004 -.00000021 1.9108522 -121.47994 -83.798392)" gradientUnits="userSpaceOnUse" r="36"><stop offset="0" stop-color="#fff"/><stop offset="1" stop-color="#fff" stop-opacity="0"/></radialGradient><filter id="c"><feGaussianBlur stdDeviation=".7474095"/></filter><radialGradient id="d" cx="64.593559" cy="-279.80936" fx="66.310204" fy="-285.85364" gradientUnits="userSpaceOnUse" r="8.511797"><stop offset="0" stop-color="#0081ec"/><stop offset="1" stop-color="#0057ae"/></radialGradient><linearGradient id="e" gradientUnits="userSpaceOnUse" x1="15.723858" x2="19.328642" y1="275.53131" y2="289.98929"><stop offset="0" stop-color="#a4c0e4"/><stop offset="1" stop-color="#a4c0e4" stop-opacity="0"/></linearGradient><linearGradient id="f" gradientUnits="userSpaceOnUse" x1="17.849051" x2="14.914782" xlink:href="#g" y1="289.42679" y2="282.30591"/><linearGradient id="g"><stop offset="0" stop-color="#dce7f5"/><stop offset="1" stop-color="#dce7f5" stop-opacity="0"/></linearGradient><radialGradient id="h" cx="33.015652" cy="97.619926" gradientTransform="matrix(.92468512 0 0 .78724011 2.682504 17.471741)" gradientUnits="userSpaceOnUse" r="27.015594"><stop offset="0" stop-color="#00438a"/><stop offset="1" stop-color="#00438a" stop-opacity="0"/></radialGradient><filter id="i"><feGaussianBlur stdDeviation="1.0003119"/></filter><linearGradient id="j" gradientUnits="userSpaceOnUse" x1="41.246826" x2="38.737919" xlink:href="#g" y1="58.851654" y2="104.69202"/><filter id="k"><feGaussianBlur stdDeviation=".21668441"/></filter><radialGradient id="l" cx="36.596191" cy="51.279228" gradientTransform="matrix(1 0 0 -.62257145 0 154.73095)" gradientUnits="userSpaceOnUse" r="34.265625"><stop offset="0" stop-color="#00bfea"/><stop offset="1" stop-color="#00bfea" stop-opacity="0"/></radialGradient><filter id="m"><feGaussianBlur stdDeviation=".42709114"/></filter><radialGradient id="n" cx="8" cy="8.201889" gradientTransform="matrix(2.5700832 0 0 2.5608174 -9.379915 915.16547)" gradientUnits="userSpaceOnUse" r="56"><stop offset=".0765" stop-color="#f3c300"/><stop offset=".1887" stop-color="#f7d21f"/><stop offset=".3467" stop-color="#fde446"/><stop offset=".4294" stop-color="#ffeb55"/><stop offset=".6882" stop-color="#ffeb55"/><stop offset=".7281" stop-color="#fee951"/><stop offset=".7641" stop-color="#fde446"/><stop offset=".7987" stop-color="#fadb34"/><stop offset=".8322" stop-color="#f7cf1a"/><stop offset=".8588" stop-color="#f3c300"/><stop offset=".9208" stop-color="#fbd400"/><stop offset=".9706" stop-color="#fd0"/></radialGradient><linearGradient id="o" gradientUnits="userSpaceOnUse" x1="68.21358" x2="96.825373" y1="929.18707" y2="974.96594"><stop offset="0" stop-color="#fff" stop-opacity=".462094"/><stop offset=".5" stop-color="#fff"/><stop offset="1" stop-color="#fff" stop-opacity=".350181"/></linearGradient><filter id="p" color-interpolation-filters="sRGB" height="1.095956" width="1.096044" x="-.048022" y="-.047978"><feGaussianBlur stdDeviation="2.0935631"/></filter><g transform="matrix(.1875 0 0 .1875 0 -173.31794)"><g fill="none" stroke-linecap="round" stroke-linejoin="round"><path d="m10.66668 935.02868 106.5062-.81622.1606 107.48304h-106.6668z" opacity=".15" stroke="#787878" stroke-width="15"/><path d="m10.66668 935.02869 104.00013-.00001v107.39252l-104.00013-.7257z" filter="url(#p)" opacity=".534" stroke="#737373" stroke-width="8"/><path d="m10.66668 935.02868h106.6668v106.66682h-106.6668z" stroke="#e3ad00" stroke-width="5.333"/></g><path d="m10.66668 935.02869 106.6668-.00001v106.66682h-106.6668z" fill="#fff"/><path d="m13.56128 937.44498 101.10553.25037v101.33345h-101.33346z" fill="url(#n)"/><path d="m10.66668 935.02868h106.6668v26.6667h-106.6668z" fill="url(#o)"/><g fill="#fff" fill-opacity=".756881"><path d="m60.560739 1017.2274v-2.6404z"/><path d="m101.45427 931.64969v-2.6404z"/></g></g><g transform="matrix(.64960631 0 0 .64960631 0 -168.93307)"><circle cx="64.594421" cy="-279.8118" fill="url(#a)" r="9.988176" stroke-width=".277449" transform="matrix(-.96592583 .25881905 -.25881905 -.96592583 0 0)"/><path d="m35.65625 56c-2.96797.02905-5.970165.415282-8.96875 1.21875-12.253354 3.283276-21.3139436 12.535765-24.9375 23.78125l4.21875.953432c3.4687891-9.435484 11.308466-17.108449 21.75-19.90625 16.129694-4.321938 32.691323 4.511363 38.3125 19.90625l4.25-.953432c-4.87952-15.242985-19.160015-25.151367-34.625-25z" fill="url(#b)" filter="url(#c)" transform="matrix(.27750617 0 0 .27750617 .036988 261.46515)"/><circle cx="64.593559" cy="-279.80936" fill="url(#d)" r="8.511797" stroke-width=".236439" transform="matrix(-.96592583 .25881905 -.25881905 -.96592583 0 0)"/><path d="m9.944519 278.50599c-.699711.007-1.4065691.10067-2.1134979.29009-4.2805178 1.14696-6.9130476 5.37997-6.158153 9.66407 2.0956738.37683 4.3759117.58846 6.7631937.58846 3.7033822 0 7.1515842-.50171 10.0453322-1.35926.0783-.94684.003-1.92262-.256935-2.8926-1.022874-3.81741-4.5015-6.32774-8.27994-6.29076z" fill="url(#e)" stroke-width=".264583"/><path d="m9.878214 278.50599c3.65891.13221 6.968265 2.56412 7.964986 6.19131.262409.95493.33599 1.91899.256935 2.85115-2.921629.84425-6.405726 1.3344-10.1447904 1.3344-2.208253 0-4.3241355-.17439-6.2907649-.48901.00374.0222.00437.0441.00829.0663 2.0956739.37683 4.375912.58846 6.763194.58846 3.7033823 0 7.1515843-.50171 10.0453323-1.35926.0783-.94684.003-1.92262-.256935-2.8926-1.022875-3.81741-4.501501-6.32774-8.279941-6.29076-.02216.00022-.04413-.0004-.0663 0z" fill="url(#f)" stroke-width=".264583"/><path d="m36.565345 72.0625-19.1875 16.625 19.1875 16.65625v-11.09375c19.485696 0 20.853434 12.75167 19.965905 15.9375 1.172916-3.48673 3.87556-25.328288-19.965905-27.03125z" style="fill-opacity:.337017;stroke-width:3.69874;stroke-linecap:round;stroke-linejoin:round;stroke:url(#h);filter:url(#i)" transform="matrix(.28682553 0 0 .28682553 -.290047 261.28699)"/><path d="m9.323581 291.58462-5.7434073-5.34279 5.7434073-5.34278v3.56185c8.310997.59365 6.521471 8.94923 6.521471 8.94923s.626933-5.38737-6.521471-5.38737z" fill="#fff" stroke-width=".264583"/><path d="m35.6875 60c-2.638196.02582-5.30334.379556-7.96875 1.09375-13.767698 3.689042-23.0030689 15.854852-23.65625 29.375 1.8891578-16.719305 14.962914-29.064922 31.625-29.382014 14.243728-.271069 27.3621 9.658327 31.21875 23.382014.612466 2.179429.965237 4.366021 1.0625 6.53125-.07065-2.411989-.411079-4.850112-1.0625-7.28125-3.85665-14.39321-16.972491-23.858189-31.21875-23.71875z" fill="url(#j)" filter="url(#k)" transform="matrix(.26522328 0 0 .26522328 .479363 262.59259)"/><path d="m35.65625 127.99829c-2.96797-.029-5.970165-.41528-8.96875-1.21875-12.253354-3.28328-21.3139436-12.53576-24.9375-23.78125l4.21875-.95343c3.4687891 9.43548 11.308466 17.10845 21.75 19.90625 16.129694 4.32194 32.691323-4.51136 38.3125-19.90625l4.25.95343c-4.87952 15.24299-19.160015 25.15137-34.625 25z" fill="url(#l)" filter="url(#m)" opacity=".813954" transform="matrix(.27750617 0 0 .27750617 .036988 261.46515)"/></g></svg>

<?xml version="1.0" encoding="UTF-8" standalone="no"?>
<svg
   xmlns:dc="http://purl.org/dc/elements/1.1/"
   xmlns:cc="http://creativecommons.org/ns#"
   xmlns:rdf="http://www.w3.org/1999/02/22-rdf-syntax-ns#"
   xmlns:svg="http://www.w3.org/2000/svg"
   xmlns="http://www.w3.org/2000/svg"
   xmlns:xlink="http://www.w3.org/1999/xlink"
   xmlns:sodipodi="http://sodipodi.sourceforge.net/DTD/sodipodi-0.dtd"
   xmlns:inkscape="http://www.inkscape.org/namespaces/inkscape"
   height="24"
   viewBox="0 0 24 24"
   width="24"
   version="1.1"
   id="svg59"
   sodipodi:docname="lc_replycomment.svg"
   inkscape:version="0.92.4 (unknown)"
   inkscape:export-filename="/home/rizmut/Dokumen/Rizmut/Github/libreoffice-style-karasa-jaga/build/next/cmd/lc_replycomment.png"
   inkscape:export-xdpi="96"
   inkscape:export-ydpi="96">
  <metadata
     id="metadata65">
    <rdf:RDF>
      <cc:Work
         rdf:about="">
        <dc:format>image/svg+xml</dc:format>
        <dc:type
           rdf:resource="http://purl.org/dc/dcmitype/StillImage" />
        <dc:title></dc:title>
      </cc:Work>
    </rdf:RDF>
  </metadata>
  <defs
     id="defs63">
    <linearGradient
       id="d"
       gradientTransform="matrix(0,0.27744933,-0.27744933,0,-41.945427,-266.49343)"
       gradientUnits="userSpaceOnUse"
       x1="9.978035"
       x2="-77.65287"
       y1="-367.08105"
       y2="-390.56168">
      <stop
         offset="0"
         stop-color="#06f"
         id="stop37" />
      <stop
         offset="1"
         stop-color="#002049"
         id="stop39" />
    </linearGradient>
    <radialGradient
       id="e"
       cx="341.08624"
       cy="77.172691"
       fx="341.84244"
       fy="66.635597"
       gradientTransform="matrix(0.457792,-4e-8,-2.1e-7,1.9108522,-121.47994,-83.798392)"
       gradientUnits="userSpaceOnUse"
       r="36">
      <stop
         offset="0"
         stop-color="#fff"
         id="stop42" />
      <stop
         offset="1"
         stop-color="#fff"
         stop-opacity="0"
         id="stop44" />
    </radialGradient>
    <filter
       id="f">
      <feGaussianBlur
         stdDeviation=".7474095"
         id="feGaussianBlur47" />
    </filter>
    <radialGradient
       id="g"
       cx="64.593559"
       cy="-279.80936"
       fx="66.310204"
       fy="-285.85364"
       gradientUnits="userSpaceOnUse"
       r="8.511797">
      <stop
         offset="0"
         stop-color="#0081ec"
         id="stop50" />
      <stop
         offset="1"
         stop-color="#0057ae"
         id="stop52" />
    </radialGradient>
    <linearGradient
       id="h"
       gradientUnits="userSpaceOnUse"
       x1="15.723858"
       x2="19.328642"
       y1="275.53131"
       y2="289.98929">
      <stop
         offset="0"
         stop-color="#a4c0e4"
         id="stop55" />
      <stop
         offset="1"
         stop-color="#a4c0e4"
         stop-opacity="0"
         id="stop57" />
    </linearGradient>
    <linearGradient
       id="i"
       gradientUnits="userSpaceOnUse"
       x1="17.849051"
       x2="14.914782"
       xlink:href="#j"
       y1="289.42679"
       y2="282.30591" />
    <linearGradient
       id="j">
      <stop
         offset="0"
         stop-color="#dce7f5"
         id="stop61" />
      <stop
         offset="1"
         stop-color="#dce7f5"
         stop-opacity="0"
         id="stop63" />
    </linearGradient>
    <radialGradient
       id="k"
       cx="33.015652"
       cy="97.619926"
       gradientTransform="matrix(0.92468512,0,0,0.78724011,2.682504,17.471741)"
       gradientUnits="userSpaceOnUse"
       r="27.015594">
      <stop
         offset="0"
         stop-color="#00438a"
         id="stop66" />
      <stop
         offset="1"
         stop-color="#00438a"
         stop-opacity="0"
         id="stop68" />
    </radialGradient>
    <filter
       id="l">
      <feGaussianBlur
         stdDeviation="1.0003119"
         id="feGaussianBlur71" />
    </filter>
    <linearGradient
       id="m"
       gradientUnits="userSpaceOnUse"
       x1="41.246826"
       x2="38.737919"
       xlink:href="#j"
       y1="58.851654"
       y2="104.69202" />
    <filter
       id="n">
      <feGaussianBlur
         stdDeviation=".21668441"
         id="feGaussianBlur75" />
    </filter>
    <radialGradient
       id="o"
       cx="36.596191"
       cy="51.279228"
       gradientTransform="matrix(1,0,0,-0.62257145,0,154.73095)"
       gradientUnits="userSpaceOnUse"
       r="34.265625">
      <stop
         offset="0"
         stop-color="#00bfea"
         id="stop78" />
      <stop
         offset="1"
         stop-color="#00bfea"
         stop-opacity="0"
         id="stop80" />
    </radialGradient>
    <filter
       id="p">
      <feGaussianBlur
         stdDeviation=".42709114"
         id="feGaussianBlur83" />
    </filter>
  </defs>
  <sodipodi:namedview
     pagecolor="#ffffff"
     bordercolor="#666666"
     borderopacity="1"
     objecttolerance="10"
     gridtolerance="10"
     guidetolerance="10"
     inkscape:pageopacity="0"
     inkscape:pageshadow="2"
     inkscape:window-width="640"
     inkscape:window-height="480"
     id="namedview61"
     showgrid="true"
     inkscape:zoom="14.024284"
     inkscape:cx="0.44190766"
     inkscape:cy="13.608123"
     inkscape:current-layer="svg59">
    <inkscape:grid
       type="xygrid"
       id="grid67" />
  </sodipodi:namedview>
  <radialGradient
     id="a"
     cx="8"
     cy="8.201889"
     gradientTransform="matrix(2.5700832 0 0 2.5608174 -9.379915 915.16547)"
     gradientUnits="userSpaceOnUse"
     r="56">
    <stop
       offset=".0765"
       stop-color="#f3c300"
       id="stop2" />
    <stop
       offset=".1887"
       stop-color="#f7d21f"
       id="stop4" />
    <stop
       offset=".3467"
       stop-color="#fde446"
       id="stop6" />
    <stop
       offset=".4294"
       stop-color="#ffeb55"
       id="stop8" />
    <stop
       offset=".6882"
       stop-color="#ffeb55"
       id="stop10" />
    <stop
       offset=".7281"
       stop-color="#fee951"
       id="stop12" />
    <stop
       offset=".7641"
       stop-color="#fde446"
       id="stop14" />
    <stop
       offset=".7987"
       stop-color="#fadb34"
       id="stop16" />
    <stop
       offset=".8322"
       stop-color="#f7cf1a"
       id="stop18" />
    <stop
       offset=".8588"
       stop-color="#f3c300"
       id="stop20" />
    <stop
       offset=".9208"
       stop-color="#fbd400"
       id="stop22" />
    <stop
       offset=".9706"
       stop-color="#fd0"
       id="stop24" />
  </radialGradient>
  <linearGradient
     id="b"
     gradientUnits="userSpaceOnUse"
     x1="68.21358"
     x2="96.825373"
     y1="929.18707"
     y2="974.96594">
    <stop
       offset="0"
       stop-color="#fff"
       stop-opacity=".462094"
       id="stop27" />
    <stop
       offset=".5"
       stop-color="#fff"
       id="stop29" />
    <stop
       offset="1"
       stop-color="#fff"
       stop-opacity=".350181"
       id="stop31" />
  </linearGradient>
  <filter
     id="c"
     color-interpolation-filters="sRGB"
     height="1.095956"
     width="1.096044"
     x="-.048022"
     y="-.047978">
    <feGaussianBlur
       stdDeviation="2.0935631"
       id="feGaussianBlur34" />
  </filter>
  <g
     transform="matrix(.1875 0 0 .1875 0 -173.31794)"
     id="g57">
    <g
       fill="none"
       stroke-linecap="round"
       stroke-linejoin="round"
       id="g43">
      <path
         d="m10.66668 935.02868 106.5062-.81622.1606 107.48304h-106.6668z"
         opacity=".15"
         stroke="#787878"
         stroke-width="15"
         id="path37" />
      <path
         d="m10.66668 935.02869 104.00013-.00001v107.39252l-104.00013-.7257z"
         filter="url(#c)"
         opacity=".534"
         stroke="#737373"
         stroke-width="8"
         id="path39" />
      <path
         d="m10.66668 935.02868h106.6668v106.66682h-106.6668z"
         stroke="#e3ad00"
         stroke-width="5.333"
         id="path41" />
    </g>
    <path
       d="m10.66668 935.02869 106.6668-.00001v106.66682h-106.6668z"
       fill="#fff"
       id="path45" />
    <path
       d="m13.56128 937.44498 101.10553.25037v101.33345h-101.33346z"
       fill="url(#a)"
       id="path47" />
    <path
       d="m10.66668 935.02868h106.6668v26.6667h-106.6668z"
       fill="url(#b)"
       id="path49" />
    <g
       fill="#fff"
       fill-opacity=".756881"
       id="g55">
      <path
         d="m60.560739 1017.2274v-2.6404z"
         id="path51" />
      <path
         d="m101.45427 931.64969v-2.6404z"
         id="path53" />
    </g>
  </g>
  <g
     transform="matrix(0.64960631,0,0,0.64960631,0,-168.93307)"
     id="g122">
    <circle
       style="fill:url(#d);stroke-width:0.27744901"
       cx="64.594421"
       cy="-279.8118"
       r="9.9881763"
       transform="rotate(165)"
       id="circle104" />
    <path
       inkscape:connector-curvature="0"
       style="fill:url(#e);filter:url(#f)"
       d="M 35.65625,56 C 32.68828,56.02905 29.686085,56.415282 26.6875,57.21875 14.434146,60.502026 5.3735564,69.754515 1.75,81 l 4.21875,0.953432 c 3.4687891,-9.435484 11.308466,-17.108449 21.75,-19.90625 16.129694,-4.321938 32.691323,4.511363 38.3125,19.90625 L 70.28125,81 C 65.40173,65.757015 51.121235,55.848633 35.65625,56 Z"
       transform="matrix(0.27750617,0,0,0.27750617,0.036988,261.46515)"
       id="path106" />
    <circle
       style="fill:url(#g);stroke-width:0.236439"
       cx="64.593559"
       cy="-279.80936"
       r="8.511797"
       transform="rotate(165)"
       id="circle108" />
    <path
       inkscape:connector-curvature="0"
       style="fill:url(#h);stroke-width:0.26458299"
       d="m 9.944519,278.50599 c -0.699711,0.007 -1.4065691,0.10067 -2.1134979,0.29009 -4.2805178,1.14696 -6.9130476,5.37997 -6.158153,9.66407 2.0956738,0.37683 4.3759117,0.58846 6.7631937,0.58846 3.7033822,0 7.1515842,-0.50171 10.0453322,-1.35926 0.0783,-0.94684 0.003,-1.92262 -0.256935,-2.8926 -1.022874,-3.81741 -4.5015,-6.32774 -8.27994,-6.29076 z"
       id="path110" />
    <path
       inkscape:connector-curvature="0"
       style="fill:url(#i);stroke-width:0.26458299"
       d="m 9.878214,278.50599 c 3.65891,0.13221 6.968265,2.56412 7.964986,6.19131 0.262409,0.95493 0.33599,1.91899 0.256935,2.85115 -2.921629,0.84425 -6.405726,1.3344 -10.1447904,1.3344 -2.208253,0 -4.3241355,-0.17439 -6.2907649,-0.48901 0.00374,0.0222 0.00437,0.0441 0.00829,0.0663 2.0956739,0.37683 4.375912,0.58846 6.763194,0.58846 3.7033823,0 7.1515843,-0.50171 10.0453323,-1.35926 0.0783,-0.94684 0.003,-1.92262 -0.256935,-2.8926 -1.022875,-3.81741 -4.501501,-6.32774 -8.279941,-6.29076 -0.02216,2.2e-4 -0.04413,-4e-4 -0.0663,0 z"
       id="path112" />
    <path
       inkscape:connector-curvature="0"
       d="m 36.565345,72.0625 -19.1875,16.625 19.1875,16.65625 V 94.25 c 19.485696,0 20.853434,12.75167 19.965905,15.9375 1.172916,-3.48673 3.87556,-25.328288 -19.965905,-27.03125 z"
       style="fill-opacity:0.33701704;stroke:url(#k);stroke-width:3.69874001;stroke-linecap:round;stroke-linejoin:round;filter:url(#l)"
       transform="matrix(0.28682553,0,0,0.28682553,-0.290047,261.28699)"
       id="path114" />
    <path
       style="fill:#ffffff;stroke-width:0.26458299"
       inkscape:connector-curvature="0"
       d="m 9.323581,291.58462 -5.7434073,-5.34279 5.7434073,-5.34278 v 3.56185 c 8.310997,0.59365 6.521471,8.94923 6.521471,8.94923 0,0 0.626933,-5.38737 -6.521471,-5.38737 z"
       id="path116" />
    <path
       inkscape:connector-curvature="0"
       style="fill:url(#m);filter:url(#n)"
       d="m 35.6875,60 c -2.638196,0.02582 -5.30334,0.379556 -7.96875,1.09375 C 13.951052,64.782792 4.7156811,76.948602 4.0625,90.46875 5.9516578,73.749445 19.025414,61.403828 35.6875,61.086736 49.931228,60.815667 63.0496,70.745063 66.90625,84.46875 67.518716,86.648179 67.871487,88.834771 67.96875,91 67.8981,88.588011 67.557671,86.149888 66.90625,83.71875 63.0496,69.32554 49.933759,59.860561 35.6875,60 Z"
       transform="matrix(0.26522328,0,0,0.26522328,0.479363,262.59259)"
       id="path118" />
    <path
       inkscape:connector-curvature="0"
       style="opacity:0.81395401;fill:url(#o);filter:url(#p)"
       d="m 35.65625,127.99829 c -2.96797,-0.029 -5.970165,-0.41528 -8.96875,-1.21875 C 14.434146,123.49626 5.3735564,114.24378 1.75,102.99829 l 4.21875,-0.95343 c 3.4687891,9.43548 11.308466,17.10845 21.75,19.90625 16.129694,4.32194 32.691323,-4.51136 38.3125,-19.90625 l 4.25,0.95343 c -4.87952,15.24299 -19.160015,25.15137 -34.625,25 z"
       transform="matrix(0.27750617,0,0,0.27750617,0.036988,261.46515)"
       id="path120" />
  </g>
</svg>
